!!!OTL: Die dienende Schwester Es wohnt ein Pfalzgraf an dem Rhein,
!!!ARE: Europa, Mitteleuropa, Deutschland (), Brandenburg
!!!YOR: 4, S. 108
!!    ????
!!!SCT: Q0075U
!!!YEM: Copyright 1995, estate of Helmut Schaffrath.
**kern
*ICvox
*Ivox
!! Mixed meters:  3/4; 4/4
*M4/4
*k[b-]
*F:
{4c
=1
8f
8c
4f
4cc
=2
8a
8cc
4a}
{4f
=3
16g
16g
8b-
4g
4e
=4
4f
8a
8g
4f}
=5
{4g
=6
4a
8g
8g
8f
8a
8cc
8b-
=7
2a
2g
=8
2f}
==
!!!AGN: Ballade, Adelige als Dienstmagd, Tod; Kinder - Spiel, Tanz
!!!ONB: ESAC (Essen Associative Code) Database: BALLADE
!!!AMT: irregular
!!!AIN: vox
!!!EED: Helmut Schaffrath
!!!EEV: 1.0
*-
